!!!Genre:	Freylekhs
!!!Mode:	Minor
!!!Listening/dance:	listening
!!!One_Mode:	yes
**kern
*thru
*I"P1
*clefG2
*k[b-e-]
*g:
*M2/4
*>A
=1
(16qqg/LL
16qqa/JJ
16gLL)
16d
16g
16b-JJ
(32dd^LLL
32ee-J
16dd
16cc
16b-JJ)
=2
16b-LL
(8qdd/
16ccJ)
8gJ
16GLL
16B-
16d
16gJJ
=3
16b-LL
16g
16b-
16ddJJ
(32cc^LLL
32ddJ
16cc)
16b-
16ccJJ
=4
8dd^L
(32b-^LL
32ccJ
16b-JJ)
(32a^LLL
32b-J
16aJ)
[8g^J
=5
16gLL]
16d
16g
16b-JJ
(32dd^LLL
32ee-J
16dd
16cc
16b-JJ)
=6
16b-LL
16ccJ
8gJ
16GLL
16B-
16d
16gJJ
=7
16b-LL
16g
16b-
16ddJJ
32ccLLL
32ddJ
16cc
16b-
16aJJ
*>A1
=8
4g
(8qff#X/
4gg)
*>A2
=:|!
4g
8r
=9!|:
*>B
8b-
=10||
8b-L
(8qdd/
8ccJ)
8ccL
8ccJ
=11
8gg
4g
8g
=12
(32b-^LLL
32ccJ
16b-)
16g
16b-JJ
32cc^LLL
32ddJ
16cc
16b-
16ccJJ
=13
32dd^LLL
32ee-J
16ddJ
8b-J
32aLLL
32b-J
16aJ
8gJ
=14
8r
4cc
8cc
=15
16ccLL
16ee-
16dd
16ccJJ
16b-LL
16aJ
8gJ
=16
16b-LL
16g
16b-
16ddJJ
(32cc^LLL
32ddJ
16cc)
16b-
16aJJ
*>B1
=17
4g
8r
*>B2
=18:|!
4g
4G
==
*-
